X:1
T:James Gibb editions
T:Ave, Rex noster - Cifra
T:#
%%score [ 1 2 3 4 ]
L:1/8
Q:1/4=108
M:4/4
K:Bb
V:1 treble nm="Soprano I" snm="S I"
V:2 treble nm="Soprano II" snm="S II"
V:3 treble nm="Alto" snm="A"
V:4 bass nm="Bass" snm="B"
V:1
"^allegro""^Antonio Cifra\n(c.1586-1629)"!p!"^Ave Rex noster" c8 |!<(! d4 e4 | f4!<)! f4 | %3
w: A-|ve Rex|no- ster,|
 z4!mf!"^cresc." d4 | d4 f4 |!f! !>!g4 f4 |[M:4/4] z2!mf! B2 f3 e | (d2 c3"^," B B2- | %8
w: a-|ve Rex|no- ster,|tu so- lus|no\- * * *|
 BA/G/) A2 B2"^,"!f! B2 | E6 F2 | B2 A2 B4- | B2 z2 GG d2- | d B2 c !>!c4 | d4 z2 dd | %14
w: * * * stros es, tu|so- lus|no- stros es|* mi- se- ra\-|* tus er- ro-|res, mi- se-|
 f3 e d2 (cd) | !>!c4"^," c4 ||"^meno vivo"!p![Q:1/4=92] B4 B_A G2- | G2 F2 G4 |!mf! e6 c2 | %19
w: ra- * tus er\- *|ro- res,,|Pa- tri o- be\-|* di- ens|du- ctus|
[Q:1/4=92][Q:1/4=92][Q:1/4=92][Q:1/4=92] c4 e4- | e2 e2 dB (e2- | e2 d2) e4 | z2 c4 A2 | %23
w: es ad|* cru- ci- fi- gen\-|* * dum,|du- ctus|
 (A3 G F4) | z2 B4 B2 |!>(!!>(! AF B4 A2!>)!!>)! ||[M:3/2] B4"^,""^allegro"!f![Q:1/4=216] d4 e4 | %27
w: es * *|ad cru-|ci- fi- gen\- *|dum. Ti- bi|
 !>!d6 d2 d2"^," d2 | (c8 =B4) | c4 c4 G4 | %30
w: glo- ri- a, ho-|san\- *|na, ti- bi|
[M:3/2][Q:1/4=216][Q:1/4=216][Q:1/4=216][Q:1/4=216] !>!A6 A2"^," A2 A2 | (G8 ^F4) | G12"^," | %33
w: glo- ri- a, ho-|san\- *|na.|
!f! G4 G4 G4 | A12 | B8"^," c4 | d4 !>!c6 c2 | d12"^," | d4 d4 d4 | c4 c4 B4 | F4 !>!G6 G2 | %41
w: ti- bi tri-|um-|phus et|vi- cto- ri-|a,|ti- bi tri-|um- phus et|vi- cto- ri-|
 A12"^," | B4 B4 B4 | d12 |[Q:1/4=212] c8[Q:1/4=208] d4 | %45
w: a,|ti- bi tri-|um-|phus et|
[Q:1/4=205] c4[Q:1/4=201] !>!c6[Q:1/4=199] c2 |[Q:1/4=194] !fermata!c12 |] %47
w: vi- cto- ri-|a.|
V:2
 z4!p! A4 |!<(! A4 c4 | d4!<)! c4 | z4!mf!"^cresc." B4 | B4 c4 |!f! !>!e4 d2 B2 | %6
w: A-|ve Rex|no- ster,|a-|ve Rex|no- ster, tu|
[M:4/4]!mf! f3 e d2 c2 | z Bfe (d3 c/B/ | c2) c2"^," d2!f! d2 | G2 G2 z EBA | (G2 FE F2) F2 | %11
w: so- lus no- stros,|tu solus * no\- * *|* stros es, tu|so- lus, tu so- lus|no\- * * * stros|
 G2"^," GG B4 | BG (B4 A2) | B2"^," BB d4- | d2 de (f4- | f2 =e2)"^," f4 ||!p! d4 d2 c2 | %17
w: es mi- se- ra-|tus er- ro\- *|res, mi- se- ra\-|* tus er- ro\-|* * res,|Pa- tri o-|
 c3 c =B4 | z8 | z8 | z8 | z2!mf! B4 G2 | G4 z4 | z2 d4 d2 | B2 (G3 A B2) |!>(! c8!>)! || %26
w: be- di- ens||||du- ctus|es|ad cru-|ci- fi\- * *|gen-|
[M:3/2] B4"^,"!f! B4 B4 | !>!B6 B2 B4"^," | F4 !>!G8 | G4 G4 c4 |[M:3/2] !>!c6 c2 c4- | %31
w: dum. Ti- bi|glo- ri- a,|ho- san-|na, ti- bi|glo- ri- a,|
 c2"^," G2 A8 | =B12"^," |!f! c4 c4 c4 | c8"^," c4 | d8 c4 | !>!B8 A4 | B12"^," | B4 B4 B4 | %39
w: * ho- san-|na,|ti- bi tri-|um- phus|et vi-|cto- ri\--|a,|ti- bi tri-|
 A4 A4 F2 D2 | !>!F8 =E4 | F12"^," | F4 F4 F4 | B8"^," B4 | A12 | F4 !>!G6 G2 | !fermata!A12 |] %47
w: um- phus et vi-|cto- ri-|a,|ti- bi tri-|um- phus|et|vi- cto- ri-|a.|
V:3
 z4!p! F4 |!<(! F4 G4 | B4!<)! A4 |!mf!"^cresc." F8 | G4 A4 |!f! !>!B4 B4 |[M:4/4] z4 z2!mf! F2 | %7
w: A-|ve Rex|no- ster,|a-|ve Rex|no- ster,|tu|
 B2 A2 B2 G2 | F4 z2!f! B,2 | B3 A (G2 F2- | F"^,"E E3 D/C/) D2"^i." | E4"^," DD G2- | G2 FG F4 | %13
w: so- lus no- stros|es, tu|so- lus no\- *|* * * * * stros|es mi- se- ra\-|* tus er- ro-|
"^," F2 FF (B4- | B2 AG) A2 (AG) | !>!G4"^," A4 ||!p! F4 F2 E2 | C3 C D2"^,"!mf! G2- | G2 E2 E4- | %19
w: res, mi- se- ra\-|* * * tus er\- *|ro- res,|Pa- tri- o-|be- dì- ens du\-|* ctus es|
"^," E2 _A4 G2 | E2 C2 F4- | F4 G4 | z2 E4 C2 | C2 F4 D2 | D4"^," D2 D2 |!>(! F2 G2 F4!>)! || %26
w: * ad cru-|ci- fi- gen\-|* dum,|du- ctus|es, du- ctus|es ad cru-|ci- fi- gen-|
[M:3/2]"^," F4!f! F4 G4 | !>!F6 F2 F4- | F2 C2 !>!D8 |"^," =E4 E4 E4 |[M:3/2] !>!F6 F2 F4"^," | %31
w: dum. Ti- bi|glo- ri- a,|* ho- san-|na, ti- bi|glo- ri- a,|
 =E4 !>!D8 | D12"^," |!f! =E4 E4 E4 | F8"^," F4 | F12 | F4 !>!F6 F2 | F12"^," | B,4 B,4 B,4 | %39
w: ho- san-|na,|ti- bi tri-|um- phus|et|vi- cto- ri\--|a,|ti- bi tri-|
 F4 F4 D4 | A,4 !>!C6 C2 | C12"^," | D4 D4 D4 | F8 F4"^," | F8 F4 | !>!F8 =E4 | !fermata!F12 |] %47
w: um- phus et|vi- cto- ri-|a,|ti- bi tri-|um- phus|et vi-|cto- ri-|a.|
V:4
 z4!p! F,4 |!<(! D,4 C,4 | B,,4!<)! F,4 | z4!mf!"^cresc." B,4 | G,4 F,4 |!f! !>!E,4 B,4 | %6
w: A-|ve Rex|no- ster,|a-|ve Rex|no- ster,|
[M:4/4] z8 | z8 | z8 | z2!f! E,2 E2 D2 | E2 C2 B,4 | z2 E,E, G,4- | G,2 D,E, F,4 | B,,4 z2 B,B, | %14
w: |||tu so- lus|no- stros es|mi- se- ra\-|* tus er- ro-|res, mi- se-|
 D6 A,B, | C4"^," F,4 ||!p! B,4 B,2 C2 | _A,3 A, G,4"^," |!mf! C6 _A,2 | _A,4"^," C4- | %20
w: ra- tus er-|ro- res,|Pa- tri o-|be- di- ens|du- ctus|es ad|
 C2 C2 B,2 _A,2 | B,4 E,2"^," E,2- | E,2 C,2 C,2"^," F,2- | F,2 D,2 D,4"^," | G,6 G,2 | %25
w: * cru- ci- fi-|gen- dum, du\-|* ctus es, du\-|* ctus es|ad cru-|
!>(! F,2 E,2 F,4!>)! ||[M:3/2]"^," B,,4!f! B,4 G,4 | !>!B,6 B,2"^," B,4 | A,4 !>!G,8 | C,12 | %30
w: ci- fi- gen-|dum. Ti- bi|glo- ri- a,|ho- san-|na,|
[M:3/2] z12 | z12 |!f! G,4 G,4 G,4 | C,8"^," C,4 | F,4 F,4 F,4 | B,4 B,4"^," A,4 | D,4 !>!F,6 F,2 | %37
w: ||ti- bi tri-|um- phus|ti- hi tri-|um- phus et|vi- cto- ri\--|
 B,,12 | z12 | z12 | z12 | F,4 F,4 F,4 | B,8 B,4 | B,,4 B,,4 B,,4 | F,4 F,4 D,4 | A,,4 !>!C,6 C,2 | %46
w: a,||||ti- bi tri-|um- phus,|ti- bi tri-|um- phus et|vi- cto- ri-|
 !fermata!F,12 |] %47
w: a.|

